X:1
T:How Can I Keep from Singing?
T:Robert Lowry (1826-1899)
T:SATB
T:How Can I Keep from Singing?
T:1860
T:Finale-Eingabe: John Christensen Copyleft 2017
T:Finale-Eingabe: John Christensen Copyleft 2017
T:Finale-Eingabe: John Christensen Copyleft 2017
T:Finale-Eingabe: John Christensen Copyleft 2017
T:Finale-Eingabe: John Christensen Copyleft 2017
C:Robert Lowry (1826-1899)
Z:Finale-Eingabe: John Christensen
Z:Copyleft 2017
%%score [ 1 2 3 4 ]
L:1/8
Q:1/4=150
M:3/2
K:F
V:1 treble nm="Sopran" snm="S"
V:2 treble nm="Alt" snm="A"
V:3 treble-8 nm="Tenor" snm="T"
V:4 bass nm="Bass" snm="B"
V:1
 C2 | F2 G2 A6 F2 | G2 F2 D6 C2 | F2 G2 c6 A2 | A2 G6 z2 C2 | F2 G2 A6 F2 | G2 F2 F6 D2 | %7
w: 1. My|life flows on in|end- less song; a-|bove earth's la- men-|ta- tion. I|hear the sweet though|far- off hymn, that|
w: 2. What|though my joys and|com- forts die? The|Lord my Sav- ior|liv- eth; What|though the dark- ness|ga- ther round! Songs|
w: 3. I|lift mine eyes; the|cloud grows thin; I|see the blue a-|bove it; and|day by day this|path- way smoothes since|
 C2 F2 A6 G2 | G2 F6 z2 A2 | c3 c c6 A2 | G2 A2 F6 G2 | A3 A A6 G2 | A2 c6 z2 A2 | c3 c c6 A2 | %14
w: hails a new cre-|a- tion: Through|all the tu- mult|and the strife I|hear the mu- sic|ring- ing; it|finds an e- cho|
w: in the night He|giv- eth: No|storm can shake my|in- most calm while|to that re- fuge|cling- ing; since|Christ is Lord of|
w: first I learned to|love it: The|peace of Christ makes|fresh my heart, a|foun- tain ev- er|spring- ing; all|things are mine since|
 F2 D2 C6 C2 | F2 G2 A6 G2 | G2 !fermata!F8 z2 |] %17
w: in my soul, How|can I keep from|sing- ing?|
w: Heav'n and earth, How|can I keep from|sing- ing?|
w: I am His, How|can I keep from|sing- ing?|
V:2
 C2 | C2 C2 F6 C2 | D2 D2 B,6 C2 | C2 F2 F6 F2 | F2 E6 z2 C2 | C2 E2 F6 C2 | D2 D2 D6 C2 | %7
w: 1. My|life flows on in|end- less song; a-|bove earth's la- men-|ta- tion. I|hear the sweet though|far- off hymn, that|
w: 2. What|though my joys and|com- forts die? The|Lord my Sav- ior|liv- eth; What|though the dark- ness|ga- ther round! Songs|
w: 3. I|lift mine eyes; the|cloud grows thin; I|see the blue a-|bove it; and|day by day this|path- way smoothes since|
 C2 C2 F6 C2 | C2 C6 z2 F2 | A3 A A6 F2 | E2 E2 F6 E2 | F3 F F6 E2 | F2 F6 z2 F2 | F3 F F6 F2 | %14
w: hails a new cre-|a- tion: Through|all the tu- mult|and the strife I|hear the mu- sic|ring- ing; it|finds an e- cho|
w: in the night He|giv- eth: No|storm can shake my|in- most calm while|to that re- fuge|cling- ing; since|Christ is Lord of|
w: first I learned to|love it: The|peace of Christ makes|fresh my heart, a|foun- tain ev- er|spring- ing; all|things are mine since|
 D2 B,2 A,6 C2 | C2 E2 F6 E2 | E2 !fermata!F8 z2 |] %17
w: in my soul, How|can I keep from|sing- ing?|
w: Heav'n and earth, How|can I keep from|sing- ing?|
w: I am His, How|can I deep from|sing- ing?|
V:3
 C2 | A2 B2 c6 A2 | B2 B2 F6 A2 | A2 c2 A6 c2 | c2 c6 z2 A2 | c2 c2 c6 A2 | B2 B2 F6 F2 | %7
w: 1. My|life flows on in|end- less song; a-|bove earth's la- men-|ta- tion. I|hear the sweet though|far- off hymn, that|
w: 2. What|though my joys and|com- forts die? The|Lord my Sav- ior|liv- eth; What|though the dark- ness|ga- ther round! Songs|
w: 3. I|lift mine eyes; the|cloud grows thin; I|see the blue a-|bove it; and|day by day this|path- way smoothes since|
 F2 A2 c6 B2 | B2 A6 z2 F2 | F3 F F6 c2 | c2 c2 A6 c2 | c3 c c6 c2 | c2 A6 z2 c2 | A3 A A6 c2 | %14
w: hails a new cre-|a- tion: Through|all the tu- mult|and the strife I|hear the mu- sic|ring- ing; it|finds an e- cho|
w: in the night He|giv- eth: No|storm can shake my|in- most calm while|to that re- fuge|cling- ing; since|Christ is Lord of|
w: first I learned to|love it: The|peace of Christ makes|fresh my heart, a|foun- tain ev- er|spring- ing; all|things are mine since|
 B2 F2 F6 A2 | c2 c2 c6 B2 | B2 !fermata!A8 z2 |] %17
w: in my soul, How|can I keep from|sing- ing?|
w: Heav'n and earth, How|can I keep from|sing- ing?|
w: I am His, How|can I keep from|sing- ing?|
V:4
 C,2 | F,2 F,2 F,6 F,2 | B,,2 B,,2 B,,6 F,2 | F,2 F,2 F,6 F,2 | C,2 C,6 z2 C,2 | A,,2 C,2 F,6 F,2 | %6
w: 1. My|life flows on in|end- less song; a-|bove earth's la- men-|ta- tion. I|hear the sweet though|
w: 2. What|though my joys and|com- forts die? The|Lord my Sav- ior|liv- eth; What|though the dark- ness|
w: 3. I|lift mine eyes; the|cloud grows thin; I|see the blue a-|bove it; and|day by day this|
 B,,2 B,,2 B,,6 B,,2 | A,,2 F,,2 C,6 C,2 | F,,2 F,,6 z2 F,2 | F,3 F, F,6 F,2 | C,2 C,2 F,,6 C,2 | %11
w: far- off hymn, that|hails a new cre-|a- tion: Through|all the tu- mult|and the strife I|
w: ga- ther round! Songs|in the night He|giv- eth: No|storm can shake my|in- most calm while|
w: path- way smoothes since|first I learned to|love it: The|peace of Christ makes|fresh my heart, a|
 F,3 F, F,6 C,2 | F,2 F,6 z2 F,2 | F,3 F, F,6 [F,,F,]2 | B,,2 D,2 F,6 F,2 | A,,2 C,2 F,6 C,2 | %16
w: hear the mu- sic|ring- ing; it|finds an e- cho|in my soul, How|can I keep from|
w: to that re- fuge|cling- ing; since|Christ is Lord of|Heav'n and earth, How|can I keep from|
w: foun- tain ev- er|spring- ing; all|things are mine since|I am His, How|can I keep from|
 C,2 !fermata!F,8 z2 |] %17
w: sing- ing?|
w: sing- ing?|
w: sing- *|

